src/landing/public/images/social/youtube.svg

<svg width="27" height="22" viewBox="0 0 27 22" fill="none" xmlns="http://www.w3.org/2000/svg">
<path d="M26.0913 3.90125C25.9445 3.29143 25.6515 2.73389 25.2417 2.28451C24.8318 1.83513 24.3195 1.50971 23.756 1.34087C21.671 0.712002 13.317 0.712002 13.317 0.712002C9.83363 0.66691 6.35118 0.866966 2.89197 1.31092C2.32834 1.49209 1.81687 1.82501 1.40585 2.27824C0.99483 2.73147 0.697817 3.29005 0.54285 3.90125C0.169127 6.21 -0.0122958 8.55017 0.00074565 10.8936C-0.0131902 13.2372 0.16824 15.5774 0.54285 17.8861C0.694627 18.4956 0.991 19.0522 1.40286 19.5012C1.81471 19.9501 2.32788 20.2757 2.89197 20.4464C5.00479 21.0753 13.317 21.0753 13.317 21.0753C16.8051 21.1204 20.2922 20.9204 23.756 20.4763C24.3195 20.3076 24.8318 19.9821 25.2417 19.5327C25.6515 19.0833 25.9445 18.5258 26.0913 17.916C26.4745 15.6083 26.6606 13.2678 26.6473 10.9236C26.676 8.56887 26.4897 6.21675 26.0913 3.90125ZM10.6621 15.2508V6.5365L17.6122 10.8936L10.6621 15.2508Z" fill="white"/>
</svg>

<?xml version="1.0" encoding="utf-8"?>
<!-- Generator: Adobe Illustrator 27.0.0, SVG Export Plug-In . SVG Version: 6.00 Build 0)  -->
<svg version="1.1" id="Layer_1" xmlns="http://www.w3.org/2000/svg" xmlns:xlink="http://www.w3.org/1999/xlink" x="0px" y="0px"
	 viewBox="0 0 27 22" style="enable-background:new 0 0 27 22;" xml:space="preserve">
<style type="text/css">
	.st0{fill:#BFA38A;}
</style>
<path class="st0" d="M26.1,3.9c-0.1-0.6-0.4-1.2-0.8-1.6c-0.4-0.4-0.9-0.8-1.5-0.9c-2.1-0.6-10.4-0.6-10.4-0.6
	c-3.5,0-7,0.2-10.4,0.6c-0.6,0.2-1.1,0.5-1.5,1s-0.7,1-0.9,1.6C0.2,6.2,0,8.6,0,10.9c0,2.3,0.2,4.7,0.5,7c0.2,0.6,0.4,1.2,0.9,1.6
	c0.4,0.4,0.9,0.8,1.5,0.9c2.1,0.6,10.4,0.6,10.4,0.6c3.5,0,7-0.2,10.4-0.6c0.6-0.2,1.1-0.5,1.5-0.9c0.4-0.4,0.7-1,0.8-1.6
	c0.4-2.3,0.6-4.6,0.6-7C26.7,8.6,26.5,6.2,26.1,3.9z M10.7,15.3V6.5l7,4.4L10.7,15.3z"/>
</svg>
